X:72
M:2/4
L:1/8
K:D
|: (B/c/) | dAFD | E/E/E Ec | dAFD | dAFD | G>BA>F | E/E/E Ed | e>gf>e | d/d/d d :|

